X: 86
T: Joe Cooley's Jig
M: 6/8
L: 1/8
R: Jig
K: D
e|fef d2B|ABA ABd|~e3 edB|efe ede|
fef d2B|ABA ABd|e3 ede|f2e d2 :|
e|fef a2f|fef a2f|efe edB|efe ede|
|1 fef a2f|fef a2f|efe ede|f2e d2 :|
|2 fef d2B|ABA ABd|e3 ede|f2e d2e||
